local/share/icons/dracula-icons-main/16/places/folder-camera.svg

<?xml version="1.0" encoding="UTF-8"?>
<svg xmlns="http://www.w3.org/2000/svg" xmlns:xlink="http://www.w3.org/1999/xlink" width="16" height="16" viewBox="0 0 16 16">
<path fill-rule="nonzero" fill="rgb(100%, 100%, 100%)" fill-opacity="1" d="M 5 2 L 4 3 L 3 3 C 1.890625 3 1 3.890625 1 5 L 1 12 C 1 13.109375 1.890625 14 3 14 L 13 14 C 14.109375 14 15 13.109375 15 12 L 15 5 C 15 3.890625 14.109375 3 13 3 L 12 3 L 11 2 Z M 5.828125 4 L 10.171875 4 L 11.171875 5 L 13 5 L 13 12 L 3 12 L 3 5 L 4.828125 5 Z M 5.828125 4 "/>
<path fill-rule="nonzero" fill="rgb(100%, 100%, 100%)" fill-opacity="1" d="M 8 5 C 6.34375 5 5 6.34375 5 8 C 5 9.65625 6.34375 11 8 11 C 9.65625 11 11 9.65625 11 8 C 11 6.34375 9.65625 5 8 5 Z M 8 7 C 8.550781 7 9 7.449219 9 8 C 9 8.550781 8.550781 9 8 9 C 7.449219 9 7 8.550781 7 8 C 7 7.449219 7.449219 7 8 7 Z M 8 7 "/>
</svg>

<svg width="16" height="16" version="1.1" viewBox="0 0 16 16" xmlns="http://www.w3.org/2000/svg">
 <defs>
  <style id="current-color-scheme" type="text/css">.ColorScheme-Text { color:#FFFFFF; } .ColorScheme-Highlight { color:#5294e2; }</style>
 </defs>
 <path style="fill:currentColor" class="ColorScheme-Text" d="m5 2-1 1h-1c-1.108 0-2 0.892-2 2v7c0 1.108 0.892 2 2 2h10c1.108 0 2-0.892 2-2v-7c0-1.108-0.892-2-2-2h-1l-1-1h-6zm0.82812 2h4.3438l1 1h1.8281v7h-10v-7h1.8281l1-1z"/>
 <path style="fill:currentColor" class="ColorScheme-Text" d="m8 5a3 3 0 0 0-3 3 3 3 0 0 0 3 3 3 3 0 0 0 3-3 3 3 0 0 0-3-3zm0 2a1 1 0 0 1 1 1 1 1 0 0 1-1 1 1 1 0 0 1-1-1 1 1 0 0 1 1-1z"/>
</svg>
